svgs/sharp-light/microphone-lines.svg

<svg xmlns="http://www.w3.org/2000/svg" viewBox="0 0 384 512"><!--! Font Awesome Pro 6.4.2 by @fontawesome - https://fontawesome.com License - https://fontawesome.com/license (Commercial License) Copyright 2023 Fonticons, Inc. --><path d="M256 32H128V256c0 35.3 28.7 64 64 64s64-28.7 64-64H208 192V224h16 48V192H208 192V160h16 48V128H208 192V96h16 48V32zm32 64v32 32 32 32 32c0 53-43 96-96 96s-96-43-96-96V32 0h32H256h32V32 96zM64 192v16 48c0 70.7 57.3 128 128 128s128-57.3 128-128V208 192h32v16 48c0 83-63.1 151.2-144 159.2V480h64 16v32H272 192 112 96V480h16 64V415.2C95.1 407.2 32 339 32 256V208 192H64z"/></svg>

<svg xmlns="http://www.w3.org/2000/svg" viewBox="0 0 384 512"><!--! Font Awesome Pro 6.6.0 by @fontawesome - https://fontawesome.com License - https://fontawesome.com/license (Commercial License) Copyright 2024 Fonticons, Inc. --><path d="M256 32L128 32l0 224c0 35.3 28.7 64 64 64s64-28.7 64-64l-48 0-16 0 0-32 16 0 48 0 0-32-48 0-16 0 0-32 16 0 48 0 0-32-48 0-16 0 0-32 16 0 48 0 0-64zm32 64l0 32 0 32 0 32 0 32 0 32c0 53-43 96-96 96s-96-43-96-96L96 32 96 0l32 0L256 0l32 0 0 32 0 64zM64 192l0 16 0 48c0 70.7 57.3 128 128 128s128-57.3 128-128l0-48 0-16 32 0 0 16 0 48c0 83-63.1 151.2-144 159.2l0 64.8 64 0 16 0 0 32-16 0-80 0-80 0-16 0 0-32 16 0 64 0 0-64.8C95.1 407.2 32 339 32 256l0-48 0-16 32 0z"/></svg>
